X: 7145
T: Christy's Carrots
R: jig
M: 6/8
K: Gmajor
|:BA|GED D2B|DEG ABd|edB AGA|B2B ABA|
GED D2B|DEG ABd|edB AGA|BGF G:|
|:ef|gef g2a|gef g2f|edB AGA|B2B GED|
gef g2a|gef g2f|edB AGA|BGF G:|

